X: 18903
T: Inches To Dublin
R: reel
M: 4/4
K: Eminor
e2ba be~e2|e2ba be~e2|gf (3efg fedb|c'bab bagf|
ebba be~e2|e2ba be~e2|gf (3efg fedf|1 adfd efgf:|2 adfd ~e2ce||
|:Bggf gfed|Bggf gf (3efg|fAag fede|~e2de edcd|
Bg~g2 gfed|Bggf gfef|gabg abc'a|1 bd'af e3d:|2 bd'af efgf||

